X:1
T:Burlin, CM
T:Burlin, CM
T:Isaac Baker Woodbury (1819-1858)
T:Public Domain Courtesy of the Cyber Hymnal™
C:Isaac Baker Woodbury (1819-1858)
Z:Public Domain
Z:Courtesy of the Cyber Hymnal™
%%score ( 1 2 ) ( 3 4 )
L:1/8
Q:1/4=145
M:3/2
K:Bb
V:1 treble 
V:2 treble 
V:3 bass 
V:4 bass 
V:1
 [DF]4 | [DB]3 [DB] [DB]4 [Fd]4 | [Gc]2 [GB]2 [EG]4 [EG]4 | F3 [DF] [CF]4 [C=E]4 | [CF]8 [DF]4 | %5
 [DB]3 [DB] [DB]4 [Fd]4 | [Gc]2 [GB]2 [EG]4 [EG]4 | F2 [FB]2 [Gc]4 [FA]4 | [FB]8 |] %9
V:2
 x4 | x12 | x12 | F3 x9 | x12 | x12 | x12 | F2 x10 | x8 |] %9
V:3
 [B,,B,]4 | [B,,B,]3 [B,,B,] [B,,B,]4 B,4 | [E,B,]2 [E,B,]2 [E,B,]4 [E,B,]4 | %3
 [D,B,]3 [B,,B,] [C,A,]4 (G,2 B,2) | [F,A,]8 [B,,B,]4 | [B,,B,]3 [B,,B,] [B,,B,]4 B,4 | %6
 [E,B,]2 [E,B,]2 [E,B,]4 [E,B,]4 | [D,B,]2 [B,,D]2 [E,E]4 [F,C]4 | [B,,D]8 |] %9
V:4
 x4 | x8 B,4 | x12 | x8 C,4 | x12 | x8 B,4 | x12 | x12 | x8 |] %9

